gama.ui.shared/icons_svg/light/status/status.view.svg

<svg height="24.75" viewBox="269.991 -3324.519 24.75 24.75" width="24.75" xmlns="http://www.w3.org/2000/svg"><path d="m290.3659-3306.3653c0 1.2267-.99445 2.2213-2.2212 2.2213h-11.5565c-1.22674 0-2.2212-.9946-2.2212-2.2213v-11.5577c0-1.2267.99446-2.221 2.2212-2.221h11.5565c1.22675 0 2.2212.9943 2.2212 2.221zm-.88847-10.2249v-1.3328c0-.736-.59668-1.3327-1.33273-1.3327h-11.5565c-.73605 0-1.33273.5967-1.33273 1.3327v1.3328zm0 .8885h-14.22196v9.3364c0 .736.59668 1.3327 1.33273 1.3327h11.5565c.73605 0 1.33273-.5967 1.33273-1.3327zm-13.33348-2.6653h.88848v.8883h-.88848zm1.77695 0h.8885v.8883h-.8885zm1.77696 0h.88848v.8883h-.88848z" fill="#a6967d"/></svg>

<?xml version="1.0" encoding="UTF-8" standalone="no"?>
<!DOCTYPE svg PUBLIC "-//W3C//DTD SVG 1.1//EN" "http://www.w3.org/Graphics/SVG/1.1/DTD/svg11.dtd">
<svg xmlns:dc="http://purl.org/dc/elements/1.1/" xmlns="http://www.w3.org/2000/svg" xmlns:xl="http://www.w3.org/1999/xlink" version="1.1" viewBox="269.9909 -3324.519 24.75 24.75" width="24.75" height="24.75">
  <defs/>
  <g id="SOURCES" stroke="none" stroke-opacity="1" fill="none" stroke-dasharray="none" fill-opacity="1">
    <title>SOURCES</title>
    <g id="SOURCES_Calque_1">
      <title>Calque 1</title>
      <g id="Graphic_6325">
        <path d="M 290.3659 -3306.3653 C 290.3659 -3305.1386 289.37145 -3304.144 288.1447 -3304.144 L 276.5882 -3304.144 C 275.36146 -3304.144 274.367 -3305.1386 274.367 -3306.3653 L 274.367 -3317.923 C 274.367 -3319.1497 275.36146 -3320.144 276.5882 -3320.144 L 288.1447 -3320.144 C 289.37145 -3320.144 290.3659 -3319.1497 290.3659 -3317.923 Z M 289.47743 -3316.5902 L 289.47743 -3317.923 C 289.47743 -3318.659 288.88075 -3319.2557 288.1447 -3319.2557 L 276.5882 -3319.2557 C 275.85215 -3319.2557 275.25547 -3318.659 275.25547 -3317.923 L 275.25547 -3316.5902 Z M 289.47743 -3315.7017 L 275.25547 -3315.7017 L 275.25547 -3306.3653 C 275.25547 -3305.6293 275.85215 -3305.0326 276.5882 -3305.0326 L 288.1447 -3305.0326 C 288.88075 -3305.0326 289.47743 -3305.6293 289.47743 -3306.3653 Z M 276.14395 -3318.367 L 277.03243 -3318.367 L 277.03243 -3317.4787 L 276.14395 -3317.4787 Z M 277.9209 -3318.367 L 278.8094 -3318.367 L 278.8094 -3317.4787 L 277.9209 -3317.4787 Z M 279.69786 -3318.367 L 280.58634 -3318.367 L 280.58634 -3317.4787 L 279.69786 -3317.4787 Z" fill="#a6967d"/>
      </g>
      <g id="Graphic_6326"/>
    </g>
  </g>
</svg>
